X:20
T:Fredrik's Long Johns
R:reel
C:Henrik Norbeck
H:January 2016
M:C|
L:1/8
K:G
BedB ~A3c | BG~G2 dGBG | BedB A2ef | gedc BG~G2 :|
efge f2df | ~g3d edgd | efge fdef | g2gd BG~G2 |
efge f2fa | ~g3f efga | b2bg ~a3f | gedc BG~G2 ||


This file contains 8 an dro (#1 - #8).
You can find more abc tune files at http://www.norbeck.nu/abc/

These an dro are Breton dance tunes from Brittany/Bretagne.

Last updated 8 October 2018.

(c) Copyright 2017-2018 Henrik Norbeck. This file:
- May be distributed with restrictions below.
- May not be used for commercial purposes (such as printing a tune book to sell).
- This file (or parts of it) may not be made available on a web page for
  download without permission from me.
- This copyright notice must be kept, except when e-mailing individual tunes.
- May be printed on paper for personal use.
- Questions? E-mail: henrik@norbeck.nu

R:an dro
M:2/4
L:1/16
Z:id:hn-%R-%X
O:Bretagne

